X: 73
T:Gyrru'r Byd o 'Mlaen
T:Kick the World Before Me
M:9/8
L:1/8
Q:130
S:Cadw Twmpath Collection
R:Slip Jig
A:Wales
Z:brian_martin12345@yahoo.com
K:Dm
e|f2d ecA AcA|f2d edc d2e|f2d ecA AcA|fga gfe d2:||
e|f2f faf ege|f2f faf g2e|f2f faf ege|fed ecA d2:||
